outputs/icons/editor/text_color_round.svg

<svg width="1200" height="1200" viewBox="0 0 1200 1200" fill="none" xmlns="http://www.w3.org/2000/svg"><g clip-path="url(#clip0_238_3229)"><path fill-rule="evenodd" d="M408.505 812.5C401.006 835 379.505 850 355.505 850C316.506 850 289.005 810.5 303.005 774L515.505 208.5C528.505 173.5 562.505 150 600.005 150C637.505 150 671.505 173.5 684.505 208.5L897.005 774C911.005 810.5 884.005 850 844.505 850C820.505 850 799.005 835 791.005 812L741.505 671H459.006L408.505 812.5ZM704.505 569.5L603.005 280H597.005L495.505 569.5H704.505ZM200 1000H1000C1055 1000 1100 1045 1100 1100C1100 1155 1055 1200 1000 1200H200C145 1200 100 1155 100 1100C100 1045 145 1000 200 1000Z" fill="#1D1E23"/></g><defs><clipPath id="clip0_238_3229"><path width="24" fill="white" d="M0 0H1200V1200H0V0z"/></clipPath></defs></svg>

<svg xmlns="http://www.w3.org/2000/svg" width="1200" height="1200" fill="none"><g fill="#000" clip-path="url(#a)"><path fill-rule="evenodd" d="M408.505 812.5c-7.499 22.5-29 37.5-53 37.5-38.999 0-66.5-39.5-52.5-76l212.5-565.5c13-35 47-58.5 84.5-58.5s71.5 23.5 84.5 58.5l212.5 565.5c14 36.5-13 76-52.5 76-24 0-45.5-15-53.5-38l-49.5-141H459.006zm296-243L603.005 280h-6l-101.5 289.5z"/><path d="M200 1000h800c55 0 100 45 100 100s-45 100-100 100H200c-55 0-100-45-100-100s45-100 100-100"/></g><defs><clipPath id="a"><path fill="#fff" d="M0 0h1200v1200H0z"/></clipPath></defs></svg>
